anomaly_sage.cube
TITLE "Anomaly -> sage/grey"
LUT_3D_SIZE 33
0.200000 0.200000 0.207843
0.200000 0.200000 0.207843
0.200000 0.200000 0.207843
0.200000 0.200000 0.207843
0.200000 0.200000 0.207843
0.200000 0.200000 0.207843
0.200256 0.200351 0.208003
0.202811 0.203865 0.209600
0.205622 0.207731 0.211357
0.208178 0.211245 0.212954
0.210989 0.215110 0.214711
0.213545 0.218624 0.216309
0.216356 0.222489 0.218066
0.218911 0.226003 0.219663
0.221723 0.229869 0.221420
0.224278 0.233383 0.223017
0.226834 0.236896 0.224614
0.229645 0.240762 0.226371
0.232399 0.244649 0.228099
0.235882 0.249783 0.230299
0.239049 0.254449 0.232299
0.242532 0.259583 0.234499
0.245699 0.264250 0.236499
0.249182 0.269383 0.238699
0.252349 0.274050 0.240699
0.255516 0.278717 0.242699
0.258999 0.283850 0.244899
0.262166 0.288517 0.246899
0.265649 0.293650 0.249099
0.268816 0.298317 0.251099
0.272299 0.303450 0.253299
0.275466 0.308117 0.255299
0.278633 0.312784 0.257300
0.200000 0.200000 0.207843
0.200000 0.200000 0.207843
0.200000 0.200000 0.207843
0.201278 0.201757 0.208642
0.203833 0.205271 0.210239
0.206645 0.209136 0.211996
0.209200 0.212650 0.213593
0.212011 0.216516 0.215350
0.214567 0.220030 0.216947
0.217123 0.223543 0.218545
0.219934 0.227409 0.220302
0.222489 0.230923 0.221899
0.225300 0.234788 0.223656
0.227856 0.238302 0.225253
0.230667 0.242167 0.227010
0.233665 0.246516 0.228899
0.237149 0.251649 0.231099
0.240315 0.256316 0.233099
0.243482 0.260983 0.235099
0.246965 0.266116 0.237299
0.250132 0.270783 0.239299
0.253616 0.275916 0.241499
0.256782 0.280583 0.243499
0.260266 0.285717 0.245699
0.263432 0.290383 0.247699
0.266916 0.295517 0.249899
0.270083 0.300184 0.251899
0.273249 0.304850 0.253899
0.276733 0.309984 0.256099
0.279899 0.314651 0.258100
0.283383 0.319784 0.260300
0.286550 0.324451 0.262300
0.290033 0.329584 0.264500
0.202300 0.203163 0.209281
0.204856 0.206677 0.210878
0.207411 0.210190 0.212475
0.210222 0.214056 0.214232
0.212778 0.217570 0.215829
0.215589 0.221435 0.217586
0.218145 0.224949 0.219184
0.220956 0.228814 0.220941
0.223512 0.232328 0.222538
0.226323 0.236194 0.224295
0.228878 0.239708 0.225892
0.231449 0.243249 0.227499
0.234932 0.248383 0.229699
0.238099 0.253049 0.231699
0.241582 0.258183 0.233899
0.244749 0.262850 0.235899
0.248232 0.267983 0.238099
0.251399 0.272650 0.240099
0.254882 0.277783 0.242299
0.258049 0.282450 0.244299
0.261216 0.287117 0.246299
0.264699 0.292250 0.248499
0.267866 0.296917 0.250499
0.271349 0.302050 0.252699
0.274516 0.306717 0.254699
0.277999 0.311850 0.256899
0.281166 0.316517 0.258900
0.284649 0.321651 0.261100
0.287816 0.326317 0.263100
0.290983 0.330984 0.265100
0.294466 0.336118 0.267300
0.297633 0.340784 0.269300
0.301116 0.345918 0.271500
0.211245 0.215461 0.214871
0.213800 0.218975 0.216468
0.216611 0.222841 0.218225
0.219167 0.226355 0.219823
0.221978 0.230220 0.221579
0.224534 0.233734 0.223177
0.227089 0.237248 0.224774
0.229901 0.241113 0.226531
0.232715 0.245116 0.228299
0.236199 0.250249 0.230499
0.239365 0.254916 0.232499
0.242849 0.260050 0.234699
0.246015 0.264716 0.236699
0.249182 0.269383 0.238699
0.252666 0.274516 0.240899
0.255832 0.279183 0.242899
0.259316 0.284317 0.245099
0.262482 0.288983 0.247099
0.265966 0.294117 0.249299
0.269133 0.298784 0.251299
0.272616 0.303917 0.253499
0.275783 0.308584 0.255499
0.278949 0.313250 0.257500
0.282433 0.318384 0.259700
0.285599 0.323051 0.261700
0.289083 0.328184 0.263900
0.292250 0.332851 0.265900
0.295733 0.337984 0.268100
0.298900 0.342651 0.270100
0.302383 0.347784 0.272300
0.305550 0.352451 0.274300
0.309999 0.357607 0.277529
0.315060 0.363342 0.281240
0.220189 0.227760 0.220461
0.222745 0.231274 0.222059
0.225556 0.235140 0.223816
0.228112 0.238653 0.225413
0.230923 0.242519 0.227170
0.233982 0.246983 0.229099
0.237465 0.252116 0.231299
0.240632 0.256783 0.233299
0.243799 0.261450 0.235299
0.247282 0.266583 0.237499
0.250449 0.271250 0.239499
0.253932 0.276383 0.241699
0.257099 0.281050 0.243699
0.260582 0.286183 0.245899
0.263749 0.290850 0.247899
0.266916 0.295517 0.249899
0.270399 0.300650 0.252099
0.273566 0.305317 0.254099
0.277049 0.310450 0.256299
0.280216 0.315117 0.258300
0.283699 0.320251 0.260500
0.286866 0.324917 0.262500
0.290350 0.330051 0.264700
0.293516 0.334718 0.266700
0.296683 0.339384 0.268700
0.300166 0.344518 0.270900
0.303333 0.349184 0.272900
0.307239 0.354479 0.275505
0.311839 0.359693 0.278878
0.316900 0.365427 0.282589
0.321500 0.370641 0.285962
0.326560 0.376376 0.289673
0.331160 0.381589 0.293047
0.229134 0.240059 0.226052
0.231765 0.243716 0.227699
0.235249 0.248849 0.229899
0.238415 0.253516 0.231899
0.241899 0.258650 0.234099
0.245065 0.263316 0.236099
0.248549 0.268450 0.238299
0.251716 0.273116 0.240299
0.255199 0.278250 0.242499
0.258366 0.282917 0.244499
0.261532 0.287583 0.246499
0.265016 0.292717 0.248699
0.268183 0.297384 0.250699
0.271666 0.302517 0.252899
0.274833 0.307184 0.254899
0.278316 0.312317 0.257099
0.281483 0.316984 0.259100
0.284649 0.321651 0.261100
0.288133 0.326784 0.263300
0.291300 0.331451 0.265300
0.294783 0.336584 0.267500
0.297950 0.341251 0.269500
0.301433 0.346384 0.271700
0.304600 0.351051 0.273700
0.309079 0.356565 0.276854
0.313679 0.361778 0.280228
0.318280 0.366991 0.283601
0.323340 0.372726 0.287312
0.327940 0.377940 0.290685
0.333000 0.383674 0.294396
0.337600 0.388888 0.297769
0.342660 0.394623 0.301480
0.347260 0.399836 0.304853
0.239682 0.255383 0.232699
0.243165 0.260516 0.234899
0.246332 0.265183 0.236899
0.249499 0.269850 0.238899
0.252982 0.274983 0.241099
0.256149 0.279650 0.243099
0.259632 0.284783 0.245299
0.262799 0.289450 0.247299
0.266282 0.294583 0.249499
0.269449 0.299250 0.251499
0.272933 0.304384 0.253699
0.276099 0.309050 0.255699
0.279266 0.313717 0.257700
0.282749 0.318851 0.259900
0.285916 0.323517 0.261900
0.289400 0.328651 0.264100
0.292566 0.333317 0.266100
0.296050 0.338451 0.268300
0.299216 0.343118 0.270300
0.302383 0.347784 0.272300
0.305867 0.352918 0.274500
0.310459 0.358129 0.277866
0.315520 0.363863 0.281577
0.320120 0.369077 0.284950
0.325180 0.374811 0.288661
0.329780 0.380025 0.292035
0.334840 0.385760 0.295745
0.339440 0.390973 0.299119
0.344040 0.396187 0.302492
0.349100 0.401921 0.306203
0.353700 0.407135 0.309576
0.358760 0.412869 0.313287
0.363360 0.418083 0.316660
0.250766 0.271716 0.239699
0.254249 0.276850 0.241899
0.257416 0.281517 0.243899
0.260899 0.286650 0.246099
0.264066 0.291317 0.248099
0.267233 0.295984 0.250099
0.270716 0.301117 0.252299
0.273883 0.305784 0.254299
0.277366 0.310917 0.256499
0.280533 0.315584 0.258500
0.284016 0.320717 0.260700
0.287183 0.325384 0.262700
0.290666 0.330517 0.264900
0.293833 0.335184 0.266900
0.297000 0.339851 0.268900
0.300483 0.344984 0.271100
0.303650 0.349651 0.273100
0.307699 0.355000 0.275842
0.312299 0.360214 0.279216
0.317360 0.365949 0.282926
0.321960 0.371162 0.286300
0.326560 0.376376 0.289673
0.331620 0.382110 0.293384
0.336220 0.387324 0.296757
0.341280 0.393058 0.300468
0.345880 0.398272 0.303841
0.350940 0.404007 0.307552
0.355540 0.409220 0.310926
0.360600 0.414955 0.314636
0.365200 0.420168 0.318010
0.369800 0.425382 0.321383
0.374861 0.431116 0.325094
0.379461 0.436330 0.328467
0.261849 0.288050 0.246699
0.265332 0.293183 0.248899
0.268499 0.297850 0.250899
0.271983 0.302984 0.253099
0.275149 0.307650 0.255099
0.278633 0.312784 0.257300
0.281799 0.317451 0.259300
0.284966 0.322117 0.261300
0.288450 0.327251 0.263500
0.291616 0.331917 0.265500
0.295100 0.337051 0.267700
0.298266 0.341718 0.269700
0.301750 0.346851 0.271900
0.304917 0.351518 0.273900
0.309539 0.357086 0.277192
0.314139 0.362299 0.280565
0.318740 0.367513 0.283938
0.323800 0.373247 0.287649
0.328400 0.378461 0.291023
0.333460 0.384196 0.294733
0.338060 0.389409 0.298107
0.343120 0.395144 0.301817
0.347720 0.400357 0.305191
0.352320 0.405571 0.308564
0.357380 0.411305 0.312275
0.361980 0.416519 0.315648
0.367040 0.422254 0.319359
0.371641 0.427467 0.322732
0.376701 0.433202 0.326443
0.381301 0.438415 0.329817
0.386361 0.444150 0.333527
0.390961 0.449363 0.336901
0.395561 0.454577 0.340274
0.272933 0.304384 0.253699
0.276416 0.309517 0.255899
0.279583 0.314184 0.257900
0.283066 0.319317 0.260100
0.286233 0.323984 0.262100
0.289716 0.329117 0.264300
0.292883 0.333784 0.266300
0.296366 0.338918 0.268500
0.299533 0.343584 0.270500
0.302700 0.348251 0.272500
0.306319 0.353436 0.274830
0.310919 0.358650 0.278204
0.315980 0.364385 0.281914
0.320580 0.369598 0.285288
0.325640 0.375333 0.288999
0.330240 0.380546 0.292372
0.335300 0.386281 0.296083
0.339900 0.391494 0.299456
0.344500 0.396708 0.302829
0.349560 0.402443 0.306540
0.354160 0.407656 0.309914
0.359220 0.413391 0.313624
0.363820 0.418604 0.316998
0.368880 0.424339 0.320708
0.373481 0.429552 0.324082
0.378081 0.434766 0.327455
0.383141 0.440501 0.331166
0.387741 0.445714 0.334539
0.392801 0.451449 0.338250
0.397401 0.456662 0.341623
0.402461 0.462397 0.345334
0.407061 0.467610 0.348708
0.412121 0.473345 0.352418
0.284333 0.321184 0.260900
0.287500 0.325851 0.262900
0.290666 0.330517 0.264900
0.294150 0.335651 0.267100
0.297316 0.340318 0.269100
0.300800 0.345451 0.271300
0.303966 0.350118 0.273300
0.308159 0.355522 0.276180
0.312759 0.360735 0.279553
0.317820 0.366470 0.283264
0.322420 0.371683 0.286637
0.327020 0.376897 0.290011
0.332080 0.382632 0.293721
0.336680 0.387845 0.297095
0.341740 0.393580 0.300805
0.346340 0.398793 0.304179
0.351400 0.404528 0.307890
0.356000 0.409741 0.311263
0.361060 0.415476 0.314974
0.365660 0.420690 0.318347
0.370260 0.425903 0.321720
0.375321 0.431638 0.325431
0.379921 0.436851 0.328805
0.384981 0.442586 0.332515
0.389581 0.447799 0.335889
0.394641 0.453534 0.339599
0.399241 0.458748 0.342973
0.403841 0.463961 0.346346
0.408901 0.469696 0.350057
0.413501 0.474909 0.353430
0.418561 0.480644 0.357141
0.423161 0.485857 0.360514
0.428026 0.489403 0.365867
0.295416 0.337518 0.267900
0.298583 0.342184 0.269900
0.302066 0.347318 0.272100
0.305233 0.351984 0.274100
0.309539 0.357086 0.277192
0.314600 0.362821 0.280902
0.319200 0.368034 0.284276
0.324260 0.373769 0.287987
0.328860 0.378982 0.291360
0.333920 0.384717 0.295071
0.338520 0.389930 0.298444
0.343580 0.395665 0.302155
0.348180 0.400879 0.305528
0.352780 0.406092 0.308902
0.357840 0.411827 0.312612
0.362440 0.417040 0.315986
0.367500 0.422775 0.319696
0.372101 0.427988 0.323070
0.377161 0.433723 0.326781
0.381761 0.438937 0.330154
0.386821 0.444671 0.333865
0.391421 0.449885 0.337238
0.396021 0.455098 0.340611
0.401081 0.460833 0.344322
0.405681 0.466046 0.347696
0.410741 0.471781 0.351406
0.415341 0.476995 0.354780
0.420401 0.482729 0.358490
0.424940 0.487256 0.362379
0.429349 0.490323 0.367362
0.434198 0.493696 0.372844
0.438606 0.496763 0.377828
0.443455 0.500136 0.383309
0.306779 0.353958 0.275168
0.311379 0.359171 0.278541
0.316440 0.364906 0.282252
0.321040 0.370119 0.285625
0.326100 0.375854 0.289336
0.330700 0.381068 0.292709
0.335300 0.386281 0.296083
0.340360 0.392016 0.299793
0.344960 0.397229 0.303167
0.350020 0.402964 0.306878
0.354620 0.408177 0.310251
0.359680 0.413912 0.313962
0.364280 0.419126 0.317335
0.369340 0.424860 0.321046
0.373941 0.430074 0.324419
0.378541 0.435287 0.327793
0.383601 0.441022 0.331503
0.388201 0.446235 0.334877
0.393261 0.451970 0.338587
0.397861 0.457184 0.341961
0.402921 0.462918 0.345672
0.407521 0.468132 0.349045
0.412581 0.473867 0.352756
0.417181 0.479080 0.356129
0.421781 0.484293 0.359502
0.426703 0.488483 0.364372
0.431112 0.491549 0.369356
0.435961 0.494923 0.374838
0.440370 0.497989 0.379821
0.445219 0.501363 0.385303
0.449627 0.504429 0.390286
0.454036 0.507496 0.395270
0.458885 0.510870 0.400751
0.322880 0.372205 0.286974
0.327480 0.377418 0.290348
0.332540 0.383153 0.294059
0.337140 0.388366 0.297432
0.342200 0.394101 0.301143
0.346800 0.399315 0.304516
0.351860 0.405049 0.308227
0.356460 0.410263 0.311600
0.361060 0.415476 0.314974
0.366120 0.421211 0.318684
0.370720 0.426424 0.322058
0.375781 0.432159 0.325769
0.380381 0.437373 0.329142
0.385441 0.443107 0.332853
0.390041 0.448321 0.336226
0.395101 0.454056 0.339937
0.399701 0.459269 0.343310
0.404301 0.464482 0.346684
0.409361 0.470217 0.350394
0.413961 0.475431 0.353768
0.419021 0.481165 0.357478
0.423618 0.486336 0.360884
0.428467 0.489709 0.366366
0.432875 0.492776 0.371349
0.437724 0.496149 0.376831
0.442133 0.499216 0.381814
0.446541 0.502283 0.386798
0.451391 0.505656 0.392280
0.455799 0.508723 0.397263
0.460648 0.512096 0.402745
0.465057 0.515163 0.407728
0.469906 0.518536 0.413210
0.474314 0.521603 0.418193
0.338980 0.390452 0.298781
0.344040 0.396187 0.302492
0.348640 0.401400 0.305865
0.353240 0.406613 0.309239
0.358300 0.412348 0.312950
0.362900 0.417562 0.316323
0.367960 0.423296 0.320034
0.372561 0.428510 0.323407
0.377621 0.434245 0.327118
0.382221 0.439458 0.330491
0.386821 0.444671 0.333865
0.391881 0.450406 0.337575
0.396481 0.455620 0.340949
0.401541 0.461354 0.344659
0.406141 0.466568 0.348033
0.411201 0.472303 0.351744
0.415801 0.477516 0.355117
0.420861 0.483251 0.358828
0.425381 0.487563 0.362877
0.429789 0.490629 0.367861
0.434639 0.494003 0.373343
0.439047 0.497069 0.378326
0.443896 0.500443 0.383808
0.448305 0.503509 0.388791
0.453154 0.506883 0.394273
0.457562 0.509950 0.399256
0.462412 0.513323 0.404738
0.466820 0.516390 0.409722
0.471228 0.519456 0.414705
0.476078 0.522830 0.420187
0.480486 0.525897 0.425170
0.485335 0.529270 0.430652
0.489744 0.532337 0.435635
0.355080 0.408699 0.310588
0.360140 0.414434 0.314299
0.364740 0.419647 0.317672
0.369800 0.425382 0.321383
0.374401 0.430595 0.324756
0.379001 0.435809 0.328130
0.384061 0.441543 0.331841
0.388661 0.446757 0.335214
0.393721 0.452492 0.338925
0.398321 0.457705 0.342298
0.403381 0.463440 0.346009
0.407981 0.468653 0.349382
0.412581 0.473867 0.352756
0.417641 0.479601 0.356466
0.422241 0.484815 0.359840
0.427144 0.488789 0.364871
0.431553 0.491856 0.369854
0.436402 0.495229 0.375336
0.440810 0.498296 0.380319
0.445660 0.501669 0.385801
0.450068 0.504736 0.390785
0.454476 0.507803 0.395768
0.459326 0.511176 0.401250
0.463734 0.514243 0.406233
0.468583 0.517616 0.411715
0.472992 0.520683 0.416698
0.477841 0.524057 0.422180
0.482249 0.527123 0.427163
0.487099 0.530497 0.432645
0.491507 0.533563 0.437629
0.495916 0.536630 0.442612
0.500765 0.540003 0.448094
0.505173 0.543070 0.453077
0.371180 0.426946 0.322395
0.376241 0.432681 0.326106
0.380841 0.437894 0.329479
0.385901 0.443629 0.333190
0.390501 0.448842 0.336563
0.395561 0.454577 0.340274
0.400161 0.459790 0.343647
0.404761 0.465004 0.347021
0.409821 0.470739 0.350732
0.414421 0.475952 0.354105
0.419481 0.481687 0.357816
0.424058 0.486643 0.361382
0.428908 0.490016 0.366864
0.433316 0.493083 0.371848
0.438165 0.496456 0.377329
0.442574 0.499523 0.382313
0.446982 0.502589 0.387296
0.451831 0.505963 0.392778
0.456240 0.509030 0.397761
0.461089 0.512403 0.403243
0.465497 0.515470 0.408226
0.470347 0.518843 0.413708
0.474755 0.521910 0.418692
0.479164 0.524977 0.423675
0.484013 0.528350 0.429157
0.488421 0.531417 0.434140
0.493270 0.534790 0.439622
0.497679 0.537857 0.444605
0.502528 0.541230 0.450087
0.506937 0.544297 0.455071
0.511786 0.547670 0.460552
0.519835 0.556946 0.466378
0.530746 0.571100 0.472865
0.387281 0.445193 0.334202
0.392341 0.450927 0.337913
0.396941 0.456141 0.341286
0.402001 0.461876 0.344997
0.406601 0.467089 0.348370
0.411661 0.472824 0.352081
0.416261 0.478037 0.355454
0.421321 0.483772 0.359165
0.425822 0.487869 0.363376
0.430230 0.490936 0.368359
0.435079 0.494309 0.373841
0.439488 0.497376 0.378824
0.444337 0.500749 0.384306
0.448746 0.503816 0.389289
0.453595 0.507190 0.394771
0.458003 0.510256 0.399755
0.462852 0.513630 0.405236
0.467261 0.516696 0.410220
0.471669 0.519763 0.415203
0.476519 0.523136 0.420685
0.480927 0.526203 0.425668
0.485776 0.529577 0.431150
0.490185 0.532643 0.436134
0.495034 0.536017 0.441615
0.499442 0.539083 0.446599
0.503851 0.542150 0.451582
0.508700 0.545524 0.457064
0.513108 0.548590 0.462047
0.524200 0.562608 0.468973
0.535110 0.576762 0.475460
0.547111 0.592331 0.482596
0.558022 0.606485 0.489084
0.570023 0.622055 0.496220
0.403841 0.463961 0.346346
0.408441 0.469174 0.349720
0.413041 0.474388 0.353093
0.418101 0.480123 0.356804
0.422701 0.485336 0.360177
0.427585 0.489096 0.365369
0.431994 0.492163 0.370352
0.436843 0.495536 0.375834
0.441251 0.498603 0.380818
0.446100 0.501976 0.386299
0.450509 0.505043 0.391283
0.454917 0.508110 0.396266
0.459767 0.511483 0.401748
0.464175 0.514550 0.406731
0.469024 0.517923 0.412213
0.473433 0.520990 0.417197
0.478282 0.524363 0.422678
0.482690 0.527430 0.427662
0.487540 0.530803 0.433144
0.491948 0.533870 0.438127
0.496356 0.536937 0.443110
0.501206 0.540310 0.448592
0.505614 0.543377 0.453576
0.510463 0.546750 0.459057
0.516562 0.552700 0.464432
0.528564 0.568269 0.471568
0.539474 0.582423 0.478055
0.550385 0.596577 0.484542
0.562386 0.612147 0.491678
0.573297 0.626301 0.498166
0.585298 0.641870 0.505302
0.596208 0.656025 0.511789
0.608210 0.671594 0.518925
0.419941 0.482208 0.358153
0.424499 0.486949 0.361881
0.429349 0.490323 0.367362
0.433757 0.493389 0.372346
0.438165 0.496456 0.377329
0.443015 0.499829 0.382811
0.447423 0.502896 0.387794
0.452272 0.506270 0.393276
0.456681 0.509336 0.398260
0.461530 0.512710 0.403741
0.465938 0.515776 0.408725
0.470788 0.519150 0.414207
0.475196 0.522216 0.419190
0.479604 0.525283 0.424173
0.484454 0.528657 0.429655
0.488862 0.531723 0.434639
0.493711 0.535097 0.440120
0.498120 0.538163 0.445104
0.502969 0.541537 0.450586
0.507377 0.544604 0.455569
0.512227 0.547977 0.461051
0.520926 0.558361 0.467027
0.531837 0.572515 0.473514
0.543838 0.588085 0.480650
0.554749 0.602239 0.487137
0.566750 0.617809 0.494273
0.577661 0.631963 0.500761
0.589662 0.647532 0.507897
0.600573 0.661686 0.514384
0.611483 0.675840 0.520871
0.623485 0.691410 0.528007
0.634395 0.705564 0.534495
0.646397 0.721133 0.541631
0.435520 0.494616 0.374339
0.439929 0.497683 0.379323
0.444778 0.501056 0.384804
0.449186 0.504123 0.389788
0.454036 0.507496 0.395270
0.458444 0.510563 0.400253
0.462852 0.513630 0.405236
0.467702 0.517003 0.410718
0.472110 0.520070 0.415702
0.476959 0.523443 0.421183
0.481368 0.526510 0.426167
0.486217 0.529883 0.431649
0.490625 0.532950 0.436632
0.495475 0.536323 0.442114
0.499883 0.539390 0.447097
0.504291 0.542457 0.452081
0.509141 0.545830 0.457562
0.513549 0.548897 0.462546
0.525291 0.564023 0.469622
0.536201 0.578177 0.476109
0.548203 0.593747 0.483245
0.559113 0.607901 0.489732
0.571114 0.623470 0.496868
0.582025 0.637624 0.503356
0.592935 0.651778 0.509843
0.604937 0.667348 0.516979
0.615847 0.681502 0.523466
0.627849 0.697071 0.530602
0.638759 0.711226 0.537089
0.650761 0.726795 0.544225
0.664827 0.742400 0.554737
0.687827 0.762115 0.576642
0.713127 0.783801 0.600738
0.450950 0.505350 0.391781
0.455358 0.508416 0.396765
0.460207 0.511790 0.402246
0.464616 0.514856 0.407230
0.469465 0.518230 0.412712
0.473873 0.521296 0.417695
0.478723 0.524670 0.423177
0.483131 0.527737 0.428160
0.487540 0.530803 0.433144
0.492389 0.534177 0.438625
0.496797 0.537243 0.443609
0.501646 0.540617 0.449091
0.506055 0.543684 0.454074
0.510904 0.547057 0.459556
0.517653 0.554115 0.465081
0.529655 0.569685 0.472217
0.540565 0.583839 0.478704
0.551476 0.597993 0.485191
0.563477 0.613562 0.492327
0.574388 0.627716 0.498814
0.586389 0.643286 0.505950
0.597300 0.657440 0.512438
0.609301 0.673009 0.519574
0.620211 0.687164 0.526061
0.632213 0.702733 0.533197
0.643123 0.716887 0.539684
0.654034 0.731041 0.546172
0.674027 0.750286 0.563499
0.697027 0.770001 0.585404
0.722328 0.791687 0.609500
0.745328 0.811402 0.631405
0.770628 0.833088 0.655501
0.793629 0.852802 0.677406
0.466379 0.516083 0.409223
0.471228 0.519456 0.414705
0.475637 0.522523 0.419688
0.480045 0.525590 0.424672
0.484894 0.528963 0.430154
0.489303 0.532030 0.435137
0.494152 0.535403 0.440619
0.498561 0.538470 0.445602
0.503410 0.541843 0.451084
0.507818 0.544910 0.456067
0.512227 0.547977 0.461051
0.522017 0.559777 0.467675
0.532928 0.573931 0.474163
0.544929 0.589500 0.481299
0.555840 0.603654 0.487786
0.567841 0.619224 0.494922
0.578752 0.633378 0.501409
0.590753 0.648948 0.508545
0.601664 0.663102 0.515033
0.612574 0.677256 0.521520
0.624576 0.692825 0.528656
0.635486 0.706979 0.535143
0.647488 0.722549 0.542279
0.658398 0.736703 0.548767
0.683227 0.758172 0.572261
0.706227 0.777887 0.594166
0.731528 0.799573 0.618262
0.754528 0.819287 0.640167
0.777529 0.839002 0.662072
0.802829 0.860688 0.686168
0.823529 0.878431 0.705882
0.823529 0.878431 0.705882
0.823529 0.878431 0.705882
0.481809 0.526817 0.426665
0.486658 0.530190 0.432147
0.491066 0.533257 0.437130
0.495916 0.536630 0.442612
0.500324 0.539697 0.447595
0.504732 0.542763 0.452579
0.509582 0.546137 0.458061
0.514380 0.549869 0.463134
0.526382 0.565438 0.470270
0.537292 0.579592 0.476758
0.549294 0.595162 0.483894
0.560204 0.609316 0.490381
0.571114 0.623470 0.496868
0.583116 0.639040 0.504004
0.594026 0.653194 0.510492
0.606028 0.668763 0.517628
0.616938 0.682917 0.524115
0.628940 0.698487 0.531251
0.639850 0.712641 0.537738
0.651852 0.728210 0.544874
0.667127 0.744372 0.556927
0.690127 0.764087 0.578833
0.715428 0.785773 0.602928
0.738428 0.805487 0.624833
0.763728 0.827173 0.648929
0.786729 0.846888 0.670834
0.812029 0.868574 0.694930
0.823529 0.878431 0.705882
0.823529 0.878431 0.705882
0.823529 0.878431 0.705882
0.823529 0.878431 0.705882
0.823529 0.878431 0.705882
0.823529 0.878431 0.705882
0.497238 0.537550 0.444107
0.502087 0.540923 0.449589
0.506496 0.543990 0.454572
0.511345 0.547364 0.460054
0.518744 0.555530 0.465729
0.530746 0.571100 0.472865
0.541656 0.585254 0.479353
0.552567 0.599408 0.485840
0.564568 0.614978 0.492976
0.575479 0.629132 0.499463
0.587480 0.644701 0.506599
0.598391 0.658855 0.513086
0.610392 0.674425 0.520223
0.621303 0.688579 0.526710
0.632213 0.702733 0.533197
0.644214 0.718303 0.540333
0.655125 0.732457 0.546820
0.676327 0.752258 0.565689
0.699327 0.771972 0.587595
0.724628 0.793658 0.611690
0.747628 0.813373 0.633595
0.772929 0.835059 0.657691
0.795929 0.854774 0.679596
0.818929 0.874488 0.701501
0.823529 0.878431 0.705882
0.823529 0.878431 0.705882
0.823529 0.878431 0.705882
0.823529 0.878431 0.705882
0.823529 0.878431 0.705882
0.823529 0.878431 0.705882
0.823529 0.878431 0.705882
0.823529 0.878431 0.705882
0.823529 0.878431 0.705882
0.512667 0.548284 0.461549
0.523108 0.561192 0.468324
0.534019 0.575346 0.474811
0.546020 0.590916 0.481947
0.556931 0.605070 0.488435
0.568932 0.620639 0.495571
0.579843 0.634793 0.502058
0.591844 0.650363 0.509194
0.602755 0.664517 0.515681
0.613665 0.678671 0.522169
0.625667 0.694241 0.529305
0.636577 0.708395 0.535792
0.648579 0.723964 0.542928
0.660227 0.738457 0.550356
0.685527 0.760144 0.574451
0.708527 0.779858 0.596357
0.731528 0.799573 0.618262
0.756828 0.821259 0.642357
0.779829 0.840974 0.664263
0.805129 0.862660 0.688358
0.823529 0.878431 0.705882
0.823529 0.878431 0.705882
0.823529 0.878431 0.705882
0.823529 0.878431 0.705882
0.823529 0.878431 0.705882
0.823529 0.878431 0.705882
0.823529 0.878431 0.705882
0.823529 0.878431 0.705882
0.823529 0.878431 0.705882
0.823529 0.878431 0.705882
0.823529 0.878431 0.705882
0.823529 0.878431 0.705882
0.823529 0.878431 0.705882
0.550385 0.596577 0.484542
0.561295 0.610731 0.491030
0.572205 0.624886 0.497517
0.584207 0.640455 0.504653
0.595117 0.654609 0.511140
0.607119 0.670179 0.518276
0.618029 0.684333 0.524764
0.630031 0.699902 0.531900
0.640941 0.714056 0.538387
0.652943 0.729626 0.545523
0.669427 0.746343 0.559118
0.692427 0.766058 0.581023
0.717728 0.787744 0.605119
0.740728 0.807459 0.627024
0.766028 0.829145 0.651119
0.789029 0.848859 0.673025
0.814329 0.870546 0.697120
0.823529 0.878431 0.705882
0.823529 0.878431 0.705882
0.823529 0.878431 0.705882
0.823529 0.878431 0.705882
0.823529 0.878431 0.705882
0.823529 0.878431 0.705882
0.823529 0.878431 0.705882
0.823529 0.878431 0.705882
0.823529 0.878431 0.705882
0.823529 0.878431 0.705882
0.823529 0.878431 0.705882
0.823529 0.878431 0.705882
