anomaly_sage.cube
TITLE "Anomaly -> sage/grey"
LUT_3D_SIZE 9
0.200000 0.200000 0.207843
0.200000 0.200000 0.207843
0.205622 0.207731 0.211357
0.216356 0.222489 0.218066
0.226834 0.236896 0.224614
0.239049 0.254449 0.232299
0.252349 0.274050 0.240699
0.265649 0.293650 0.249099
0.278633 0.312784 0.257300
0.220189 0.227760 0.220461
0.230923 0.242519 0.227170
0.243799 0.261450 0.235299
0.257099 0.281050 0.243699
0.270399 0.300650 0.252099
0.283699 0.320251 0.260500
0.296683 0.339384 0.268700
0.311839 0.359693 0.278878
0.331160 0.381589 0.293047
0.261849 0.288050 0.246699
0.275149 0.307650 0.255099
0.288450 0.327251 0.263500
0.301750 0.346851 0.271900
0.318740 0.367513 0.283938
0.338060 0.389409 0.298107
0.357380 0.411305 0.312275
0.376701 0.433202 0.326443
0.395561 0.454577 0.340274
0.306779 0.353958 0.275168
0.326100 0.375854 0.289336
0.344960 0.397229 0.303167
0.364280 0.419126 0.317335
0.383601 0.441022 0.331503
0.402921 0.462918 0.345672
0.421781 0.484293 0.359502
0.440370 0.497989 0.379821
0.458885 0.510870 0.400751
0.371180 0.426946 0.322395
0.390501 0.448842 0.336563
0.409821 0.470739 0.350732
0.428908 0.490016 0.366864
0.446982 0.502589 0.387296
0.465497 0.515470 0.408226
0.484013 0.528350 0.429157
0.502528 0.541230 0.450087
0.530746 0.571100 0.472865
0.435520 0.494616 0.374339
0.454036 0.507496 0.395270
0.472110 0.520070 0.415702
0.490625 0.532950 0.436632
0.509141 0.545830 0.457562
0.548203 0.593747 0.483245
0.592935 0.651778 0.509843
0.638759 0.711226 0.537089
0.713127 0.783801 0.600738
0.497238 0.537550 0.444107
0.518744 0.555530 0.465729
0.564568 0.614978 0.492976
0.610392 0.674425 0.520223
0.655125 0.732457 0.546820
0.747628 0.813373 0.633595
0.823529 0.878431 0.705882
0.823529 0.878431 0.705882
0.823529 0.878431 0.705882
0.626758 0.695656 0.529953
0.687827 0.762115 0.576642
0.782129 0.842945 0.666453
0.823529 0.878431 0.705882
0.823529 0.878431 0.705882
0.823529 0.878431 0.705882
0.823529 0.878431 0.705882
0.823529 0.878431 0.705882
0.823529 0.878431 0.705882
0.823529 0.878431 0.705882
0.823529 0.878431 0.705882
0.823529 0.878431 0.705882
0.823529 0.878431 0.705882
0.823529 0.878431 0.705882
0.823529 0.878431 0.705882
0.823529 0.878431 0.705882
0.823529 0.878431 0.705882
0.823529 0.878431 0.705882
0.200000 0.200000 0.207843
0.200000 0.200000 0.207843
0.209200 0.212650 0.213593
0.219934 0.227409 0.220302
0.230667 0.242167 0.227010
0.243482 0.260983 0.235099
0.256782 0.280583 0.243499
0.270083 0.300184 0.251899
0.283383 0.319784 0.260300
0.223767 0.232680 0.222698
0.235249 0.248849 0.229899
0.248549 0.268450 0.238299
0.261532 0.287583 0.246499
0.274833 0.307184 0.254899
0.288133 0.326784 0.263300
0.301433 0.346384 0.271700
0.318280 0.366991 0.283601
0.337600 0.388888 0.297769
0.266599 0.295050 0.249699
0.279583 0.314184 0.257900
0.292883 0.333784 0.266300
0.306319 0.353436 0.274830
0.325640 0.375333 0.288999
0.344500 0.396708 0.302829
0.363820 0.418604 0.316998
0.383141 0.440501 0.331166
0.402461 0.462397 0.345334
0.313219 0.361257 0.279890
0.332540 0.383153 0.294059
0.351860 0.405049 0.308227
0.370720 0.426424 0.322058
0.390041 0.448321 0.336226
0.409361 0.470217 0.350394
0.428467 0.489709 0.366366
0.446541 0.502283 0.386798
0.465057 0.515163 0.407728
0.378081 0.434766 0.327455
0.396941 0.456141 0.341286
0.416261 0.478037 0.355454
0.435079 0.494309 0.373841
0.453595 0.507190 0.394771
0.471669 0.519763 0.415203
0.490185 0.532643 0.436134
0.508700 0.545524 0.457064
0.547111 0.592331 0.482596
0.441692 0.498909 0.381316
0.460207 0.511790 0.402246
0.478723 0.524670 0.423177
0.496797 0.537243 0.443609
0.517653 0.554115 0.465081
0.563477 0.613562 0.492327
0.609301 0.673009 0.519574
0.654034 0.731041 0.546172
0.745328 0.811402 0.631405
0.503410 0.541843 0.451084
0.534019 0.575346 0.474811
0.579843 0.634793 0.502058
0.625667 0.694241 0.529305
0.685527 0.760144 0.574451
0.779829 0.840974 0.664263
0.823529 0.878431 0.705882
0.823529 0.878431 0.705882
0.823529 0.878431 0.705882
0.642032 0.715472 0.539036
0.720028 0.789716 0.607309
0.816629 0.872517 0.699311
0.823529 0.878431 0.705882
0.823529 0.878431 0.705882
0.823529 0.878431 0.705882
0.823529 0.878431 0.705882
0.823529 0.878431 0.705882
0.823529 0.878431 0.705882
0.823529 0.878431 0.705882
0.823529 0.878431 0.705882
0.823529 0.878431 0.705882
0.823529 0.878431 0.705882
0.823529 0.878431 0.705882
0.823529 0.878431 0.705882
0.823529 0.878431 0.705882
0.823529 0.878431 0.705882
0.823529 0.878431 0.705882
0.200000 0.200000 0.207843
0.202300 0.203163 0.209281
0.212778 0.217570 0.215829
0.223512 0.232328 0.222538
0.234932 0.248383 0.229699
0.248232 0.267983 0.238099
0.261216 0.287117 0.246299
0.274516 0.306717 0.254699
0.287816 0.326317 0.263100
0.227345 0.237599 0.224934
0.239682 0.255383 0.232699
0.252982 0.274983 0.241099
0.266282 0.294583 0.249499
0.279266 0.313717 0.257700
0.292566 0.333317 0.266100
0.305867 0.352918 0.274500
0.325180 0.374811 0.288661
0.344040 0.396187 0.302492
0.271033 0.301584 0.252499
0.284016 0.320717 0.260700
0.297316 0.340318 0.269100
0.312759 0.360735 0.279553
0.332080 0.382632 0.293721
0.351400 0.404528 0.307890
0.370260 0.425903 0.321720
0.389581 0.447799 0.335889
0.408901 0.469696 0.350057
0.319660 0.368555 0.284613
0.338980 0.390452 0.298781
0.358300 0.412348 0.312950
0.377161 0.433723 0.326781
0.396481 0.455620 0.340949
0.415801 0.477516 0.355117
0.434639 0.494003 0.373343
0.453154 0.506883 0.394273
0.471228 0.519456 0.414705
0.384521 0.442065 0.332178
0.403381 0.463440 0.346009
0.422701 0.485336 0.360177
0.441251 0.498603 0.380818
0.459767 0.511483 0.401748
0.478282 0.524363 0.422678
0.496356 0.536937 0.443110
0.516562 0.552700 0.464432
0.562386 0.612147 0.491678
0.447864 0.503203 0.388293
0.466379 0.516083 0.409223
0.484894 0.528963 0.430154
0.502969 0.541537 0.450586
0.532928 0.573931 0.474163
0.578752 0.633378 0.501409
0.624576 0.692825 0.528656
0.683227 0.758172 0.572261
0.777529 0.839002 0.662072
0.510022 0.546444 0.458559
0.549294 0.595162 0.483894
0.595117 0.654609 0.511140
0.640941 0.714056 0.538387
0.717728 0.787744 0.605119
0.812029 0.868574 0.694930
0.823529 0.878431 0.705882
0.823529 0.878431 0.705882
0.823529 0.878431 0.705882
0.657307 0.735287 0.548118
0.752228 0.817316 0.637976
0.823529 0.878431 0.705882
0.823529 0.878431 0.705882
0.823529 0.878431 0.705882
0.823529 0.878431 0.705882
0.823529 0.878431 0.705882
0.823529 0.878431 0.705882
0.823529 0.878431 0.705882
0.823529 0.878431 0.705882
0.823529 0.878431 0.705882
0.823529 0.878431 0.705882
0.823529 0.878431 0.705882
0.823529 0.878431 0.705882
0.823529 0.878431 0.705882
0.823529 0.878431 0.705882
0.823529 0.878431 0.705882
0.823529 0.878431 0.705882
0.200000 0.200000 0.207843
0.205878 0.208082 0.211517
0.216356 0.222489 0.218066
0.227089 0.237248 0.224774
0.239365 0.254916 0.232499
0.252666 0.274516 0.240899
0.265649 0.293650 0.249099
0.278949 0.313250 0.257500
0.292250 0.332851 0.265900
0.230923 0.242519 0.227170
0.244115 0.261916 0.235499
0.257416 0.281517 0.243899
0.270716 0.301117 0.252299
0.283699 0.320251 0.260500
0.297000 0.339851 0.268900
0.312299 0.360214 0.279216
0.331620 0.382110 0.293384
0.350940 0.404007 0.307552
0.275466 0.308117 0.255299
0.288766 0.327717 0.263700
0.301750 0.346851 0.271900
0.319200 0.368034 0.284276
0.338520 0.389930 0.298444
0.357840 0.411827 0.312612
0.376701 0.433202 0.326443
0.396021 0.455098 0.340611
0.415341 0.476995 0.354780
0.326100 0.375854 0.289336
0.345420 0.397751 0.303504
0.364740 0.419647 0.317672
0.384061 0.441543 0.331841
0.402921 0.462918 0.345672
0.422241 0.484815 0.359840
0.440810 0.498296 0.380319
0.459326 0.511176 0.401250
0.477400 0.523750 0.421682
0.390961 0.449363 0.336901
0.410281 0.471260 0.351069
0.428908 0.490016 0.366864
0.447423 0.502896 0.387794
0.465938 0.515776 0.408725
0.484454 0.528657 0.429655
0.502528 0.541230 0.450087
0.531837 0.572515 0.473514
0.577661 0.631963 0.500761
0.454036 0.507496 0.395270
0.472551 0.520376 0.416200
0.491066 0.533257 0.437130
0.509582 0.546137 0.458061
0.548203 0.593747 0.483245
0.594026 0.653194 0.510492
0.639850 0.712641 0.537738
0.715428 0.785773 0.602928
0.809729 0.866603 0.692739
0.519835 0.556946 0.466378
0.565659 0.616393 0.493625
0.610392 0.674425 0.520223
0.656216 0.733872 0.547469
0.749928 0.815345 0.635786
0.823529 0.878431 0.705882
0.823529 0.878431 0.705882
0.823529 0.878431 0.705882
0.823529 0.878431 0.705882
0.687827 0.762115 0.576642
0.784429 0.844917 0.668644
0.823529 0.878431 0.705882
0.823529 0.878431 0.705882
0.823529 0.878431 0.705882
0.823529 0.878431 0.705882
0.823529 0.878431 0.705882
0.823529 0.878431 0.705882
0.823529 0.878431 0.705882
0.823529 0.878431 0.705882
0.823529 0.878431 0.705882
0.823529 0.878431 0.705882
0.823529 0.878431 0.705882
0.823529 0.878431 0.705882
0.823529 0.878431 0.705882
0.823529 0.878431 0.705882
0.823529 0.878431 0.705882
0.823529 0.878431 0.705882
0.200000 0.200000 0.207843
0.209456 0.213002 0.213753
0.220189 0.227760 0.220461
0.230667 0.242167 0.227010
0.243799 0.261450 0.235299
0.257099 0.281050 0.243699
0.270399 0.300650 0.252099
0.283383 0.319784 0.260300
0.296683 0.339384 0.268700
0.235565 0.249316 0.230099
0.248549 0.268450 0.238299
0.261849 0.288050 0.246699
0.275149 0.307650 0.255099
0.288450 0.327251 0.263500
0.301433 0.346384 0.271700
0.318740 0.367513 0.283938
0.338060 0.389409 0.298107
0.357380 0.411305 0.312275
0.279899 0.314651 0.258100
0.293200 0.334251 0.266500
0.306779 0.353958 0.275168
0.325640 0.375333 0.288999
0.344960 0.397229 0.303167
0.364280 0.419126 0.317335
0.383601 0.441022 0.331503
0.402461 0.462397 0.345334
0.421781 0.484293 0.359502
0.333000 0.383674 0.294396
0.351860 0.405049 0.308227
0.371180 0.426946 0.322395
0.390501 0.448842 0.336563
0.409821 0.470739 0.350732
0.428467 0.489709 0.366366
0.446982 0.502589 0.387296
0.465497 0.515470 0.408226
0.484013 0.528350 0.429157
0.397401 0.456662 0.341623
0.416721 0.478559 0.355792
0.435520 0.494616 0.374339
0.453595 0.507190 0.394771
0.472110 0.520070 0.415702
0.490625 0.532950 0.436632
0.509141 0.545830 0.457562
0.547111 0.592331 0.482596
0.592935 0.651778 0.509843
0.460648 0.512096 0.402745
0.478723 0.524670 0.423177
0.497238 0.537550 0.444107
0.518744 0.555530 0.465729
0.564568 0.614978 0.492976
0.609301 0.673009 0.519574
0.655125 0.732457 0.546820
0.747628 0.813373 0.633595
0.823529 0.878431 0.705882
0.535110 0.576762 0.475460
0.580934 0.636209 0.502707
0.626758 0.695656 0.529953
0.685527 0.760144 0.574451
0.782129 0.842945 0.666453
0.823529 0.878431 0.705882
0.823529 0.878431 0.705882
0.823529 0.878431 0.705882
0.823529 0.878431 0.705882
0.722328 0.791687 0.609500
0.816629 0.872517 0.699311
0.823529 0.878431 0.705882
0.823529 0.878431 0.705882
0.823529 0.878431 0.705882
0.823529 0.878431 0.705882
0.823529 0.878431 0.705882
0.823529 0.878431 0.705882
0.823529 0.878431 0.705882
0.823529 0.878431 0.705882
0.823529 0.878431 0.705882
0.823529 0.878431 0.705882
0.823529 0.878431 0.705882
0.823529 0.878431 0.705882
0.823529 0.878431 0.705882
0.823529 0.878431 0.705882
0.823529 0.878431 0.705882
0.823529 0.878431 0.705882
0.202300 0.203163 0.209281
0.213034 0.217921 0.215989
0.223767 0.232680 0.222698
0.235249 0.248849 0.229899
0.248232 0.267983 0.238099
0.261532 0.287583 0.246499
0.274833 0.307184 0.254899
0.288133 0.326784 0.263300
0.301116 0.345918 0.271500
0.239999 0.255849 0.232899
0.253299 0.275450 0.241299
0.266282 0.294583 0.249499
0.279583 0.314184 0.257900
0.292883 0.333784 0.266300
0.306319 0.353436 0.274830
0.325180 0.374811 0.288661
0.344500 0.396708 0.302829
0.363820 0.418604 0.316998
0.284333 0.321184 0.260900
0.297633 0.340784 0.269300
0.313219 0.361257 0.279890
0.332540 0.383153 0.294059
0.351400 0.404528 0.307890
0.370720 0.426424 0.322058
0.390041 0.448321 0.336226
0.409361 0.470217 0.350394
0.428026 0.489403 0.365867
0.339440 0.390973 0.299119
0.358760 0.412869 0.313287
0.377621 0.434245 0.327118
0.396941 0.456141 0.341286
0.416261 0.478037 0.355454
0.435079 0.494309 0.373841
0.453154 0.506883 0.394273
0.471669 0.519763 0.415203
0.490185 0.532643 0.436134
0.403841 0.463961 0.346346
0.423161 0.485857 0.360514
0.441692 0.498909 0.381316
0.460207 0.511790 0.402246
0.478282 0.524363 0.422678
0.496797 0.537243 0.443609
0.517653 0.554115 0.465081
0.563477 0.613562 0.492327
0.608210 0.671594 0.518925
0.466820 0.516390 0.409722
0.484894 0.528963 0.430154
0.503410 0.541843 0.451084
0.534019 0.575346 0.474811
0.579843 0.634793 0.502058
0.625667 0.694241 0.529305
0.683227 0.758172 0.572261
0.779829 0.840974 0.664263
0.823529 0.878431 0.705882
0.550385 0.596577 0.484542
0.596208 0.656025 0.511789
0.642032 0.715472 0.539036
0.720028 0.789716 0.607309
0.814329 0.870546 0.697120
0.823529 0.878431 0.705882
0.823529 0.878431 0.705882
0.823529 0.878431 0.705882
0.823529 0.878431 0.705882
0.754528 0.819287 0.640167
0.823529 0.878431 0.705882
0.823529 0.878431 0.705882
0.823529 0.878431 0.705882
0.823529 0.878431 0.705882
0.823529 0.878431 0.705882
0.823529 0.878431 0.705882
0.823529 0.878431 0.705882
0.823529 0.878431 0.705882
0.823529 0.878431 0.705882
0.823529 0.878431 0.705882
0.823529 0.878431 0.705882
0.823529 0.878431 0.705882
0.823529 0.878431 0.705882
0.823529 0.878431 0.705882
0.823529 0.878431 0.705882
0.823529 0.878431 0.705882
0.823529 0.878431 0.705882
0.205878 0.208082 0.211517
0.216611 0.222841 0.218225
0.227345 0.237599 0.224934
0.239682 0.255383 0.232699
0.252982 0.274983 0.241099
0.265966 0.294117 0.249299
0.279266 0.313717 0.257700
0.292566 0.333317 0.266100
0.305867 0.352918 0.274500
0.244432 0.262383 0.235699
0.257732 0.281983 0.244099
0.270716 0.301117 0.252299
0.284016 0.320717 0.260700
0.297316 0.340318 0.269100
0.312759 0.360735 0.279553
0.332080 0.382632 0.293721
0.350940 0.404007 0.307552
0.370260 0.425903 0.321720
0.288766 0.327717 0.263700
0.302066 0.347318 0.272100
0.319660 0.368555 0.284613
0.338980 0.390452 0.298781
0.357840 0.411827 0.312612
0.377161 0.433723 0.326781
0.396481 0.455620 0.340949
0.415801 0.477516 0.355117
0.434639 0.494003 0.373343
0.345880 0.398272 0.303841
0.365200 0.420168 0.318010
0.384061 0.441543 0.331841
0.403381 0.463440 0.346009
0.422701 0.485336 0.360177
0.441251 0.498603 0.380818
0.459767 0.511483 0.401748
0.477841 0.524057 0.422180
0.496356 0.536937 0.443110
0.410281 0.471260 0.351069
0.429349 0.490323 0.367362
0.447864 0.503203 0.388293
0.466379 0.516083 0.409223
0.484454 0.528657 0.429655
0.502969 0.541537 0.450586
0.532928 0.573931 0.474163
0.578752 0.633378 0.501409
0.624576 0.692825 0.528656
0.472992 0.520683 0.416698
0.491507 0.533563 0.437629
0.509582 0.546137 0.458061
0.549294 0.595162 0.483894
0.595117 0.654609 0.511140
0.640941 0.714056 0.538387
0.715428 0.785773 0.602928
0.812029 0.868574 0.694930
0.823529 0.878431 0.705882
0.565659 0.616393 0.493625
0.611483 0.675840 0.520871
0.657307 0.735287 0.548118
0.752228 0.817316 0.637976
0.823529 0.878431 0.705882
0.823529 0.878431 0.705882
0.823529 0.878431 0.705882
0.823529 0.878431 0.705882
0.823529 0.878431 0.705882
0.786729 0.846888 0.670834
0.823529 0.878431 0.705882
0.823529 0.878431 0.705882
0.823529 0.878431 0.705882
0.823529 0.878431 0.705882
0.823529 0.878431 0.705882
0.823529 0.878431 0.705882
0.823529 0.878431 0.705882
0.823529 0.878431 0.705882
0.823529 0.878431 0.705882
0.823529 0.878431 0.705882
0.823529 0.878431 0.705882
0.823529 0.878431 0.705882
0.823529 0.878431 0.705882
0.823529 0.878431 0.705882
0.823529 0.878431 0.705882
0.823529 0.878431 0.705882
0.823529 0.878431 0.705882
0.209711 0.213353 0.213913
0.220189 0.227760 0.220461
0.230923 0.242519 0.227170
0.244115 0.261916 0.235499
0.257416 0.281517 0.243899
0.270399 0.300650 0.252099
0.283699 0.320251 0.260500
0.297000 0.339851 0.268900
0.312299 0.360214 0.279216
0.248866 0.268916 0.238499
0.262166 0.288517 0.246899
0.275466 0.308117 0.255299
0.288450 0.327251 0.263500
0.301750 0.346851 0.271900
0.319200 0.368034 0.284276
0.338520 0.389930 0.298444
0.357380 0.411305 0.312275
0.376701 0.433202 0.326443
0.293516 0.334718 0.266700
0.306779 0.353958 0.275168
0.326100 0.375854 0.289336
0.345420 0.397751 0.303504
0.364740 0.419647 0.317672
0.383601 0.441022 0.331503
0.402921 0.462918 0.345672
0.422241 0.484815 0.359840
0.440810 0.498296 0.380319
0.352320 0.405571 0.308564
0.371641 0.427467 0.322732
0.390961 0.449363 0.336901
0.409821 0.470739 0.350732
0.428908 0.490016 0.366864
0.447423 0.502896 0.387794
0.465938 0.515776 0.408725
0.484013 0.528350 0.429157
0.502528 0.541230 0.450087
0.417181 0.479080 0.356129
0.435520 0.494616 0.374339
0.454036 0.507496 0.395270
0.472551 0.520376 0.416200
0.491066 0.533257 0.437130
0.509141 0.545830 0.457562
0.548203 0.593747 0.483245
0.594026 0.653194 0.510492
0.639850 0.712641 0.537738
0.479164 0.524977 0.423675
0.497679 0.537857 0.444605
0.519835 0.556946 0.466378
0.564568 0.614978 0.492976
0.610392 0.674425 0.520223
0.656216 0.733872 0.547469
0.749928 0.815345 0.635786
0.823529 0.878431 0.705882
0.823529 0.878431 0.705882
0.582025 0.637624 0.503356
0.626758 0.695656 0.529953
0.687827 0.762115 0.576642
0.784429 0.844917 0.668644
0.823529 0.878431 0.705882
0.823529 0.878431 0.705882
0.823529 0.878431 0.705882
0.823529 0.878431 0.705882
0.823529 0.878431 0.705882
0.818929 0.874488 0.701501
0.823529 0.878431 0.705882
0.823529 0.878431 0.705882
0.823529 0.878431 0.705882
0.823529 0.878431 0.705882
0.823529 0.878431 0.705882
0.823529 0.878431 0.705882
0.823529 0.878431 0.705882
0.823529 0.878431 0.705882
0.823529 0.878431 0.705882
0.823529 0.878431 0.705882
0.823529 0.878431 0.705882
0.823529 0.878431 0.705882
0.823529 0.878431 0.705882
0.823529 0.878431 0.705882
0.823529 0.878431 0.705882
0.823529 0.878431 0.705882
0.823529 0.878431 0.705882
0.213289 0.218273 0.216149
0.224023 0.233031 0.222857
0.235249 0.248849 0.229899
0.248549 0.268450 0.238299
0.261849 0.288050 0.246699
0.275149 0.307650 0.255099
0.288133 0.326784 0.263300
0.301433 0.346384 0.271700
0.318740 0.367513 0.283938
0.253299 0.275450 0.241299
0.266599 0.295050 0.249699
0.279899 0.314651 0.258100
0.293200 0.334251 0.266500
0.306319 0.353436 0.274830
0.325640 0.375333 0.288999
0.344960 0.397229 0.303167
0.364280 0.419126 0.317335
0.383141 0.440501 0.331166
0.297950 0.341251 0.269500
0.313679 0.361778 0.280228
0.332540 0.383153 0.294059
0.351860 0.405049 0.308227
0.371180 0.426946 0.322395
0.390501 0.448842 0.336563
0.409361 0.470217 0.350394
0.428467 0.489709 0.366366
0.446982 0.502589 0.387296
0.358760 0.412869 0.313287
0.378081 0.434766 0.327455
0.397401 0.456662 0.341623
0.416721 0.478559 0.355792
0.435079 0.494309 0.373841
0.453595 0.507190 0.394771
0.472110 0.520070 0.415702
0.490625 0.532950 0.436632
0.508700 0.545524 0.457064
0.423618 0.486336 0.360884
0.442133 0.499216 0.381814
0.460207 0.511790 0.402246
0.478723 0.524670 0.423177
0.497238 0.537550 0.444107
0.518744 0.555530 0.465729
0.563477 0.613562 0.492327
0.609301 0.673009 0.519574
0.655125 0.732457 0.546820
0.485335 0.529270 0.430652
0.503851 0.542150 0.451582
0.535110 0.576762 0.475460
0.580934 0.636209 0.502707
0.625667 0.694241 0.529305
0.685527 0.760144 0.574451
0.782129 0.842945 0.666453
0.823529 0.878431 0.705882
0.823529 0.878431 0.705882
0.597300 0.657440 0.512438
0.643123 0.716887 0.539684
0.720028 0.789716 0.607309
0.816629 0.872517 0.699311
0.823529 0.878431 0.705882
0.823529 0.878431 0.705882
0.823529 0.878431 0.705882
0.823529 0.878431 0.705882
0.823529 0.878431 0.705882
0.823529 0.878431 0.705882
0.823529 0.878431 0.705882
0.823529 0.878431 0.705882
0.823529 0.878431 0.705882
0.823529 0.878431 0.705882
0.823529 0.878431 0.705882
0.823529 0.878431 0.705882
0.823529 0.878431 0.705882
0.823529 0.878431 0.705882
0.823529 0.878431 0.705882
0.823529 0.878431 0.705882
0.823529 0.878431 0.705882
0.823529 0.878431 0.705882
0.823529 0.878431 0.705882
0.823529 0.878431 0.705882
0.823529 0.878431 0.705882
0.823529 0.878431 0.705882
0.823529 0.878431 0.705882
