anomaly_sage.cube
TITLE "Anomaly -> sage/grey"
LUT_3D_SIZE 5
0.200000 0.200000 0.207843
0.205622 0.207731 0.211357
0.226834 0.236896 0.224614
0.252349 0.274050 0.240699
0.278633 0.312784 0.257300
0.261849 0.288050 0.246699
0.288450 0.327251 0.263500
0.318740 0.367513 0.283938
0.357380 0.411305 0.312275
0.395561 0.454577 0.340274
0.371180 0.426946 0.322395
0.409821 0.470739 0.350732
0.446982 0.502589 0.387296
0.484013 0.528350 0.429157
0.530746 0.571100 0.472865
0.497238 0.537550 0.444107
0.564568 0.614978 0.492976
0.655125 0.732457 0.546820
0.823529 0.878431 0.705882
0.823529 0.878431 0.705882
0.823529 0.878431 0.705882
0.823529 0.878431 0.705882
0.823529 0.878431 0.705882
0.823529 0.878431 0.705882
0.823529 0.878431 0.705882
0.200000 0.200000 0.207843
0.212778 0.217570 0.215829
0.234932 0.248383 0.229699
0.261216 0.287117 0.246299
0.287816 0.326317 0.263100
0.271033 0.301584 0.252499
0.297316 0.340318 0.269100
0.332080 0.382632 0.293721
0.370260 0.425903 0.321720
0.408901 0.469696 0.350057
0.384521 0.442065 0.332178
0.422701 0.485336 0.360177
0.459767 0.511483 0.401748
0.496356 0.536937 0.443110
0.562386 0.612147 0.491678
0.510022 0.546444 0.458559
0.595117 0.654609 0.511140
0.717728 0.787744 0.605119
0.823529 0.878431 0.705882
0.823529 0.878431 0.705882
0.823529 0.878431 0.705882
0.823529 0.878431 0.705882
0.823529 0.878431 0.705882
0.823529 0.878431 0.705882
0.823529 0.878431 0.705882
0.200000 0.200000 0.207843
0.220189 0.227760 0.220461
0.243799 0.261450 0.235299
0.270399 0.300650 0.252099
0.296683 0.339384 0.268700
0.279899 0.314651 0.258100
0.306779 0.353958 0.275168
0.344960 0.397229 0.303167
0.383601 0.441022 0.331503
0.421781 0.484293 0.359502
0.397401 0.456662 0.341623
0.435520 0.494616 0.374339
0.472110 0.520070 0.415702
0.509141 0.545830 0.457562
0.592935 0.651778 0.509843
0.535110 0.576762 0.475460
0.626758 0.695656 0.529953
0.782129 0.842945 0.666453
0.823529 0.878431 0.705882
0.823529 0.878431 0.705882
0.823529 0.878431 0.705882
0.823529 0.878431 0.705882
0.823529 0.878431 0.705882
0.823529 0.878431 0.705882
0.823529 0.878431 0.705882
0.205878 0.208082 0.211517
0.227345 0.237599 0.224934
0.252982 0.274983 0.241099
0.279266 0.313717 0.257700
0.305867 0.352918 0.274500
0.288766 0.327717 0.263700
0.319660 0.368555 0.284613
0.357840 0.411827 0.312612
0.396481 0.455620 0.340949
0.434639 0.494003 0.373343
0.410281 0.471260 0.351069
0.447864 0.503203 0.388293
0.484454 0.528657 0.429655
0.532928 0.573931 0.474163
0.624576 0.692825 0.528656
0.565659 0.616393 0.493625
0.657307 0.735287 0.548118
0.823529 0.878431 0.705882
0.823529 0.878431 0.705882
0.823529 0.878431 0.705882
0.823529 0.878431 0.705882
0.823529 0.878431 0.705882
0.823529 0.878431 0.705882
0.823529 0.878431 0.705882
0.823529 0.878431 0.705882
0.213289 0.218273 0.216149
0.235249 0.248849 0.229899
0.261849 0.288050 0.246699
0.288133 0.326784 0.263300
0.318740 0.367513 0.283938
0.297950 0.341251 0.269500
0.332540 0.383153 0.294059
0.371180 0.426946 0.322395
0.409361 0.470217 0.350394
0.446982 0.502589 0.387296
0.423618 0.486336 0.360884
0.460207 0.511790 0.402246
0.497238 0.537550 0.444107
0.563477 0.613562 0.492327
0.655125 0.732457 0.546820
0.597300 0.657440 0.512438
0.720028 0.789716 0.607309
0.823529 0.878431 0.705882
0.823529 0.878431 0.705882
0.823529 0.878431 0.705882
0.823529 0.878431 0.705882
0.823529 0.878431 0.705882
0.823529 0.878431 0.705882
0.823529 0.878431 0.705882
0.823529 0.878431 0.705882
